X:1
T:Title
%%score ( 1 2 ) { 3 | ( 4 5 ) }
L:1/8
Q:1/4=112
M:4/4
K:Bb
V:1 treble nm="Grand Piano, Staff 1"
V:2 treble 
V:3 bass nm="Choir Pad, Ormesby, 76.76.778.76"
V:4 bass 
V:5 bass 
V:1
 B,2 D2 F2 GA | B2 [Fc]2 [FB]2 [Fd]2 | [Fc]2 F2 [=EG]3 [EA] | F4 [FA]2 [FG]F | %4
w: By~George~Merritt * * * *||||
 [FB]2 [B,D]2 [B,D]2 _D-[G,D] | [A,D]2 [CG]2 [GB]2 [^FA]G | A3 A G4 | [FB]2 F2 [Fd]3 [Ec] | %8
w: ||||
 [DB]2 [Fc]2 [FB]2 [G=B]2 | [Gc]2 [Fd]2 [Ee]3 [Fd] | cBAG [D^F]4 | G2 [GB]2 [Bd]3 [Fc] | %12
w: ||||
 [FB]2 [Fc]2 [FB]2 [FB]2 | [Af]2 B2 [Gc]3 [Fd] | [FB]8 |] %15
w: |||
V:2
 x8 | x8 | x8 | x8 | z4 z2 .A,2 | x8 | G2 ^F2 z4 | x8 | x8 | x8 | G2 C2 z4 | x8 | x8 | x8 | x8 |] %15
V:3
 B,,2 D,2 F,2 G,A, | B,2 A,2 B,2 B,2 | A,2 B,2 .B,4 | A,4 C2 B,A, | B,2 B,2 G,2 G,2 | %5
 ^F,2 G,2 G,B,[K:treble]CD | E2 DC[K:bass] B,4 | B,2 A,2 B,3 A, | B,2[K:treble] E2 D2 D2 | %9
 C2 =B,2 C3[K:bass] _B, | B,2 C2 A,4 | B,[K:treble]EDC B,3 C | D2 A,2 B,2 D2 | C2 F2 E2 E2 | D8 |] %15
V:4
 z8 | z2 F,2 D,2 B,,2 | E,2 D,2 C,2 z C | F,4 E,2 E,2 | D,2 G,2 E,2 E,2 | D,2 E,2 E,D,C,B,, | %6
 C,2 D,2 G,4 | D,2 F,2 B,,3 F, | G,2 A,2 B,2 G,2 | E,2 D,2 C,3 D, | E,2 E,2 D,4 | %11
 D,C,B,,A,, G,,3 A,, | B,,2 F,2 D,2 B,,2 | C,2 D,2 E,2 F,2 | B,,8 |] %15
V:5
 x8 | x8 | z4 z2 C,2 | x8 | x8 | x8 | x8 | x8 | x8 | x8 | x8 | x8 | x8 | x8 | x8 |] %15

